X:1
T:Title
%%score ( 1 2 ) { 3 | 4 }
L:1/8
Q:1/4=102
M:6/8
K:F
V:1 treble nm="Grand Piano, Soprano"
V:2 treble 
V:3 treble nm="Choir Pad, Antrim, 87.87 D"
V:4 bass 
V:1
 [FA]2 [FA] A_A[F=A] | [Fc]2 [FB] [FA]2 [EG] | z3 .F3 | [EA]2 [EG] [EG]3 | [FA]2 [FA] A_A[F=A] | %5
w: By~Philip~Paul~Bliss,~1871 * * * *|||||
 [Fc]2 [FB] [FA]2 [EG] | z3 .F3 | [EA]2 [EG] F3 | [EG]2 [EG] [EG][_E^F][=EG] | %9
w: ||||
 [Ac]2 [GB] [GB]2 [FA] | [FA]2 [GA] [FA]2 [FA] | [Fd]2 [FG] [EG]3 | [FA]2 [FA] A_A[F=A] | %13
w: ||||
 [Fc]2 [FB] [FA]2 [EG] | z3 .F3 | [EA]2 [EG] F3- | F6 |] %17
w: ||||
V:2
 z3 .F3 | x6 | [DF]2 [DF] D-[DE][DF] | x6 | z3 .F3 | x6 | [DF]2 [DF] D-[DE][DF] | x6 | x6 | x6 | %10
 x6 | x6 | z3 .F3 | x6 | [DF]2 [DF] D-[DE][DF] | x6 | x6 |] %17
V:3
 C2 C C=B,C | D2 D C2[K:bass] B, | A,2 A, A,2 A, | C2 C C3 | C2 C C=B,C | D2 D C2[K:bass] B, | %6
 A,2 A, A,2 A, | C2 B, A,3 | C2 C C2 C | C2 C C2 C | C2 ^C D2 D | D2 D C3 | C2 C C=B,C | %13
 D2 D C2[K:bass] B, | A,2 A, A,2 A, | C2 B, A,3- | A,6 |] %17
V:4
 F,2 F, F,2 F, | F,2 F, F,2 C, | D,2 D, D,2 D, | A,,2 C, C,3 | F,2 F, F,2 F, | F,2 F, F,2 C, | %6
 D,2 D, D,2 D, | C,2 C, F,3 | C,2 C, C,2 C, | C,2 C, F,2 F, | F,2 E, D,2 D, | B,,2 =B,, C,3 | %12
 F,2 F, F,2 F, | F,2 F, F,2 C, | D,2 D, D,2 D, | C,2 C, F,3- | F,6 |] %17

